public/img/icons/global/details.card.svg

<svg width="24" height="24" viewBox="0 0 24 24" fill="none" xmlns="http://www.w3.org/2000/svg">
<path d="M2.2998 9.7H21.5998M21.6998 11.8V7.7C21.6998 6.2 20.4998 5 18.9998 5H4.9998C3.4998 5 2.2998 6.2 2.2998 7.7V16.4C2.2998 17.9 3.4998 19.1 4.9998 19.1H7.89981" stroke="#101828" stroke-width="1.5" stroke-linecap="round" stroke-linejoin="round"/>
<path d="M11.0002 13.6001C11.0002 13.6001 11.0002 13.6001 10.9002 13.6001L9.8002 14.3001C9.8002 14.3001 9.7002 14.4001 9.7002 14.5001V15.8001C9.7002 15.8001 9.7002 16.0001 9.8002 16.0001C9.8002 16.0001 10.0002 16.0001 10.1002 16.0001L10.9002 15.5001V19.9001C10.9002 20.0001 11.0002 20.1001 11.1002 20.1001H12.3002C12.4002 20.1001 12.5002 20.0001 12.5002 19.9001V13.8001C12.5002 13.7001 12.4002 13.6001 12.3002 13.6001H11.0002Z" fill="#101828"/>
<path d="M17.6002 17.3001C17.8002 17.1001 17.9002 16.9001 18.0002 16.7001C18.0002 16.5001 18.1002 16.2001 18.1002 15.9001C18.1002 15.6001 18.0002 15.0001 17.8002 14.7001C17.6002 14.4001 17.3002 14.1001 17.0002 13.9001C16.3002 13.5001 15.3002 13.5001 14.6002 13.9001C14.2002 14.1001 13.9002 14.4001 13.7002 14.7001C13.5002 15.0001 13.4002 15.4001 13.4002 15.9001C13.4002 16.4001 13.5002 16.1001 13.6002 16.1001H14.8002C14.8002 16.1001 14.9002 16.1001 15.0002 16.1001C15.1002 16.1001 15.0002 16.0001 15.0002 15.9001C15.0002 15.8001 15.0002 15.7001 15.0002 15.6001C15.0002 15.5001 15.1002 15.4001 15.3002 15.3001C15.5002 15.2001 15.8002 15.2001 16.0002 15.3001C16.0002 15.3001 16.2002 15.4001 16.2002 15.5001C16.2002 15.6001 16.2002 15.7001 16.2002 15.9001C16.2002 16.1001 16.2002 16.1001 16.2002 16.2001C16.2002 16.3001 16.0002 16.5001 15.9002 16.6001L13.4002 18.9001C13.4002 18.9001 13.4002 19.0001 13.4002 19.1001V20.1001C13.4002 20.2001 13.5002 20.3001 13.6002 20.3001H17.8002C17.9002 20.3001 18.0002 20.2001 18.0002 20.1001V19.0001C18.0002 18.9001 17.9002 18.8001 17.8002 18.8001H16.0002L16.9002 18.1001C17.1002 17.9001 17.4002 17.7001 17.5002 17.5001L17.6002 17.3001Z" fill="#101828"/>
<path d="M22.8002 17.1001C22.7002 16.8001 22.4002 16.5001 22.2002 16.3001C22.2002 16.3001 22.0002 16.2001 21.9002 16.1001L22.9002 15.2001C22.9002 15.2001 22.9002 15.1001 22.9002 15.0001V13.9001C22.9002 13.8001 22.8002 13.7001 22.7002 13.7001H18.9002C18.8002 13.7001 18.7002 13.8001 18.7002 13.9001V15.0001C18.7002 15.1001 18.8002 15.2001 18.9002 15.2001H20.6002L19.5002 16.1001C19.5002 16.1001 19.4002 16.3001 19.5002 16.4001L20.0002 17.3001C20.0002 17.3001 20.0002 17.4001 20.2002 17.4001C20.2002 17.4001 20.3002 17.4001 20.4002 17.4001C20.4002 17.4001 20.5002 17.4001 20.6002 17.4001C20.8002 17.4001 21.1002 17.4001 21.3002 17.6001C21.4002 17.7001 21.5002 17.9001 21.5002 18.1001C21.5002 18.3001 21.5002 18.3001 21.5002 18.4001C21.5002 18.5001 21.4002 18.6001 21.2002 18.7001C21.0002 18.8001 20.7002 18.8001 20.4002 18.7001C20.3002 18.7001 20.2002 18.5001 20.2002 18.3001C20.2002 18.3001 20.2002 18.2001 20.1002 18.1001C20.1002 18.1001 20.0002 18.1001 19.9002 18.1001L18.8002 18.4001C18.8002 18.4001 18.7002 18.4001 18.6002 18.5001C18.6002 18.5001 18.6002 18.6001 18.6002 18.7001C18.6002 19.0001 18.9002 19.3001 19.1002 19.6001C19.3002 19.8001 19.6002 20.0001 19.9002 20.2001C20.2002 20.3001 20.5002 20.4001 20.9002 20.4001C21.3002 20.4001 21.7002 20.3001 22.1002 20.1001C22.5002 19.9001 22.7002 19.6001 23.0002 19.3001C23.2002 19.0001 23.3002 18.6001 23.3002 18.1001C23.3002 17.6001 23.3002 17.4001 23.1002 17.1001H22.8002Z" fill="#101828"/>
</svg>

<?xml version="1.0" encoding="UTF-8"?>
<svg id="Capa_1" xmlns="http://www.w3.org/2000/svg" version="1.1" viewBox="0 0 24 24">
  <!-- Generator: Adobe Illustrator 30.0.0, SVG Export Plug-In . SVG Version: 2.1.1 Build 123)  -->
  <defs>
    <style>
      .st0 {
        fill: none;
        stroke: #000;
        stroke-linecap: round;
        stroke-linejoin: round;
        stroke-width: 2px;
      }
    </style>
  </defs>
  <path class="st0" d="M2.3,9.7h19.3"/>
  <path class="st0" d="M21.7,12.5"/>
  <path class="st0" d="M21.7,11.8v-4.1c0-1.5-1.2-2.7-2.7-2.7H5c-1.5,0-2.7,1.2-2.7,2.7v8.7c0,1.5,1.2,2.7,2.7,2.7h2.9"/>
  <g>
    <path d="M12.2,13.6h-1.2s0,0-.1,0l-1.1.7c0,0-.1.1-.1.2v1.3c0,0,0,.2.1.2,0,0,.2,0,.3,0l.8-.5v4.4c0,.1.1.2.2.2h1.2c.1,0,.2-.1.2-.2v-6.1c0-.1-.1-.2-.2-.2Z"/>
    <path d="M17.6,17.3c.2-.2.3-.4.4-.6,0-.2.1-.5.1-.8s-.1-.9-.3-1.2c-.2-.3-.5-.6-.8-.8-.7-.4-1.7-.4-2.4,0-.4.2-.7.5-.9.8-.2.3-.3.7-.3,1.2s.1.2.2.2h1.2c0,0,.1,0,.2,0s0-.1,0-.2c0-.1,0-.2,0-.3,0-.1.1-.2.3-.3.2-.1.5-.1.7,0,0,0,.2.1.2.2,0,.1,0,.2,0,.4s0,.2,0,.3c0,.1-.2.3-.3.4l-2.5,2.3c0,0,0,.1,0,.2v1c0,.1.1.2.2.2h4.2c.1,0,.2-.1.2-.2v-1.1c0-.1-.1-.2-.2-.2h-1.8l.9-.7c.2-.2.5-.4.6-.6Z"/>
    <path d="M22.8,17.1c-.1-.3-.4-.6-.6-.8,0,0-.2-.1-.3-.2l1-.9s0-.1,0-.2v-1.1c0-.1-.1-.2-.2-.2h-3.8c-.1,0-.2.1-.2.2v1.1c0,.1.1.2.2.2h1.7l-1.1.9c0,0-.1.2,0,.3l.5.9c0,0,0,.1.2.1,0,0,.1,0,.2,0,0,0,.1,0,.2,0,.2,0,.5,0,.7.2.1.1.2.3.2.5s0,.2,0,.3c0,.1-.1.2-.3.3-.2.1-.5.1-.8,0-.1,0-.2-.2-.2-.4,0,0,0-.1-.1-.2,0,0-.1,0-.2,0l-1.1.3c0,0-.1,0-.2.1,0,0,0,.1,0,.2,0,.3.3.6.5.9.2.2.5.4.8.6.3.1.6.2,1,.2s.8-.1,1.2-.3c.4-.2.6-.5.9-.8.2-.3.3-.7.3-1.2s0-.7-.2-1Z"/>
  </g>
  <path class="st0" d="M24.5,12.7"/>
</svg>
